img/i/real-estate.svg

<svg enable-background="new 0 0 512.001 512.001" viewBox="0 0 512.001 512.001" xmlns="http://www.w3.org/2000/svg"><path d="m450.581 141.22v343.556h-131.121v-186.777h-126.92v186.777h-132.28v-343.556l195.74-112.837z" fill="#ffb14d"/><path d="m506.289 160.355-244.414-143.808c-3.626-2.134-8.124-2.134-11.749 0l-244.415 143.808c-5.514 3.245-7.353 10.344-4.109 15.858s10.343 7.354 15.858 4.109l34.721-20.429v325.578c0 6.398 5.186 11.584 11.584 11.584h129.853c6.398 0 11.584-5.186 11.584-11.584v-182.287h101.6v182.287c0 6.398 5.186 11.584 11.584 11.584h129.853c6.398 0 11.584-5.186 11.584-11.584v-325.577l34.721 20.429c1.845 1.085 3.867 1.602 5.864 1.602 3.97 0 7.836-2.042 9.994-5.711 3.241-5.515 1.401-12.614-4.113-15.859zm-69.636 313.532h-106.685v-182.287c0-6.398-5.186-11.584-11.584-11.584h-124.767c-6.398 0-11.584 5.186-11.584 11.584v182.287h-106.685v-327.625l180.653-106.292 180.653 106.293z" fill="#11113f"/></svg>

<?xml version="1.0" encoding="iso-8859-1"?>
<!-- Generator: Adobe Illustrator 19.0.0, SVG Export Plug-In . SVG Version: 6.00 Build 0)  -->
<svg version="1.1" id="Layer_1" xmlns="http://www.w3.org/2000/svg" xmlns:xlink="http://www.w3.org/1999/xlink" x="0px" y="0px"
	 viewBox="0 0 512.001 512.001" style="enable-background:new 0 0 512.001 512.001;" xml:space="preserve">
<polygon style="fill:#FFB14D;" points="450.581,141.22 450.581,484.776 319.46,484.776 319.46,297.999 192.54,297.999 
	192.54,484.776 60.26,484.776 60.26,141.22 256,28.383 "/>
<path style="fill:#11113F;" d="M506.289,160.355L261.875,16.547c-3.626-2.134-8.124-2.134-11.749,0L5.711,160.355
	c-5.514,3.245-7.353,10.344-4.109,15.858s10.343,7.354,15.858,4.109l34.721-20.429v325.578c0,6.398,5.186,11.584,11.584,11.584
	h129.853c6.398,0,11.584-5.186,11.584-11.584V303.184h101.6v182.287c0,6.398,5.186,11.584,11.584,11.584h129.853
	c6.398,0,11.584-5.186,11.584-11.584V159.894l34.721,20.429c1.845,1.085,3.867,1.602,5.864,1.602c3.97,0,7.836-2.042,9.994-5.711
	C513.643,170.699,511.803,163.6,506.289,160.355z M436.653,473.887H329.968V291.6c0-6.398-5.186-11.584-11.584-11.584H193.617
	c-6.398,0-11.584,5.186-11.584,11.584v182.287H75.348V146.262L256.001,39.97l180.653,106.293L436.653,473.887L436.653,473.887z"/>
<g>
</g>
<g>
</g>
<g>
</g>
<g>
</g>
<g>
</g>
<g>
</g>
<g>
</g>
<g>
</g>
<g>
</g>
<g>
</g>
<g>
</g>
<g>
</g>
<g>
</g>
<g>
</g>
<g>
</g>
</svg>
